;FLAVOR:UltiGCode
;TIME:5074
;MATERIAL:5852
;MATERIAL2:0
;NOZZLE_DIAMETER:0.4
;MINX:73.348
;MINY:89.872
;MINZ:0.27
;MAXX:155.002
;MAXY:155.003
;MAXZ:6.87
;Generated with Cura_SteamEngine main
M82 ;absolute extrusion mode
G0 F3000 Y50 ;avoid prime blob
G92 E0
G92 E0
G10
;LAYER_COUNT:67
;LAYER:0
M107
G0 F4320 X81.065 Y94.938 Z0.27
G0 X74.318 Y105.075
;TYPE:SKIRT
G11
G1 F1800 X74.573 Y104.32 E0.08607
G1 X74.954 Y103.307 E0.20295
G1 X75.272 Y102.58 E0.28865
G1 X75.669 Y101.752 E0.38782
G1 X76.181 Y100.788 E0.50571
G1 X76.754 Y99.849 E0.62451
G1 X77.28 Y99.063 E0.72665
G1 X77.631 Y98.578 E0.79131
G1 X78.308 Y97.711 E0.91011
G1 X78.818 Y97.123 E0.99417
G1 X79.44 Y96.453 E1.09291
G1 X80.218 Y95.681 E1.21128
G1 X81.065 Y94.938 E1.33296
G1 X81.782 Y94.361 E1.43236
G1 X82.26 Y94.003 E1.49686
G1 X83.174 Y93.367 E1.61712
G1 X84.123 Y92.789 E1.73712
G1 X84.642 Y92.498 E1.80138
G1 X85.596 Y92.005 E1.91736
G1 X86.316 Y91.679 E2.00272
G1 X87.306 Y91.27 E2.1184
G1 X88.054 Y91.006 E2.20407
G1 X89.102 Y90.677 E2.3227
G1 X90.172 Y90.409 E2.44183
G1 X90.937 Y90.246 E2.52631
G1 X92.011 Y90.073 E2.64379
G1 X92.943 Y89.964 E2.74514
G1 X93.878 Y89.896 E2.84638
G1 X94.475 Y89.874 E2.9109
G1 X95.398 Y89.872 E3.01059
G1 X96.509 Y89.917 E3.13067
G1 X97.595 Y90.027 E3.24856
G1 X98.524 Y90.16 E3.34992
G1 X99.444 Y90.333 E3.45102
G1 X100.215 Y90.507 E3.53638
G1 X101.258 Y90.8 E3.65338
G1 X101.826 Y90.981 E3.71777
G1 X102.85 Y91.345 E3.83514
G1 X103.881 Y91.785 E3.9562
G1 X104.57 Y92.109 E4.03843
G1 X120.358 Y99.918 E5.94071
G1 X120.956 Y100.247 E6.01442
G1 X121.715 Y100.709 E6.11038
G1 X122.367 Y101.153 E6.19558
G1 X122.81 Y101.514 E6.2573
G1 X123.481 Y102.104 E6.35379
G1 X124.046 Y102.655 E6.43903
G1 X124.415 Y103.082 E6.49998
G1 X124.974 Y103.779 E6.59647
G1 X125.497 Y104.503 E6.69293
G1 X126.09 Y105.531 E6.8211
G1 X126.449 Y106.234 E6.90635
G1 X126.772 Y107.082 E7.00436
G1 X127.041 Y107.934 E7.10085
G1 X127.267 Y108.802 E7.19772
G1 X127.448 Y109.975 E7.3259
G1 X127.529 Y110.761 E7.41124
G1 X127.537 Y111.324 E7.47205
G1 X127.512 Y112.554 E7.60492
G1 X128.328 Y112.34 E7.69602
G1 X128.911 Y112.209 E7.76056
G1 X129.982 Y112.007 E7.87827
G1 X130.755 Y111.902 E7.96252
G1 X131.676 Y111.81 E8.06248
G1 X132.786 Y111.747 E8.18255
G1 X133.877 Y111.749 E8.30038
G1 X134.474 Y111.771 E8.3649
G1 X135.409 Y111.839 E8.46615
G1 X136.343 Y111.948 E8.5677
G1 X137.256 Y112.095 E8.66758
G1 X138.34 Y112.318 E8.7871
G1 X139.099 Y112.516 E8.87182
G1 X140.145 Y112.828 E8.9897
G1 X141.17 Y113.198 E9.10739
G1 X141.914 Y113.497 E9.19399
G1 X142.879 Y113.945 E9.3089
G1 X143.576 Y114.297 E9.39323
G1 X144.524 Y114.84 E9.51122
G1 X145.032 Y115.155 E9.57577
G1 X145.942 Y115.766 E9.69415
G1 X146.571 Y116.237 E9.77902
G1 X147.289 Y116.815 E9.87857
G1 X148.122 Y117.547 E9.99833
G1 X148.899 Y118.314 E10.11624
G1 X149.44 Y118.886 E10.20127
G1 X150.14 Y119.71 E10.31804
G1 X150.637 Y120.337 E10.40445
G1 X151.26 Y121.213 E10.52054
G1 X151.695 Y121.872 E10.60582
G1 X152.236 Y122.791 E10.721
G1 X152.522 Y123.316 E10.78556
G1 X153.023 Y124.323 E10.90704
G1 X153.449 Y125.323 E11.02443
G1 X153.664 Y125.88 E11.08891
G1 X153.974 Y126.783 E11.19202
G1 X154.284 Y127.83 E11.30995
G1 X154.537 Y128.906 E11.42933
G1 X154.652 Y129.491 E11.49372
G1 X154.799 Y130.413 E11.59455
G1 X154.926 Y131.498 E11.71253
G1 X154.989 Y132.608 E11.8326
G1 X155.002 Y133.545 E11.93381
G1 X154.976 Y134.454 E12.03202
G1 X154.928 Y135.23 E12.11599
G1 X154.841 Y136.019 E12.20172
G1 X154.69 Y137.071 E12.3165
G1 X154.463 Y138.182 E12.43896
G1 X154.325 Y138.75 E12.50209
G1 X154.03 Y139.8 E12.61988
G1 X153.781 Y140.542 E12.70441
G1 X153.402 Y141.557 E12.82142
G1 X153.082 Y142.289 E12.9077
G1 X152.607 Y143.279 E13.02629
G1 X152.071 Y144.249 E13.14598
G1 X151.763 Y144.761 E13.21051
G1 X151.266 Y145.527 E13.30913
G1 X150.728 Y146.286 E13.40961
G1 X150.036 Y147.175 E13.53128
G1 X149.322 Y147.987 E13.64805
G1 X148.783 Y148.56 E13.73301
G1 X148 Y149.31 E13.85011
G1 X147.413 Y149.835 E13.93517
G1 X146.574 Y150.51 E14.05146
G1 X145.936 Y150.989 E14.13762
G1 X145.027 Y151.598 E14.25579
G1 X144.232 Y152.082 E14.35631
G1 X143.712 Y152.374 E14.42072
G1 X142.751 Y152.872 E14.53762
G1 X142.035 Y153.196 E14.62249
G1 X141.034 Y153.608 E14.7394
G1 X140.109 Y153.935 E14.84536
G1 X139.098 Y154.234 E14.95922
G1 X138.52 Y154.385 E15.02374
G1 X137.444 Y154.624 E15.14278
G1 X136.662 Y154.755 E15.22841
G1 X135.576 Y154.899 E15.34673
G1 X134.473 Y154.979 E15.46617
G1 X133.875 Y155.001 E15.53079
G1 X132.953 Y155.003 E15.63037
G1 X132.017 Y154.965 E15.73154
G1 X131.082 Y154.886 E15.83288
G1 X130.15 Y154.766 E15.93437
G1 X129.24 Y154.609 E16.0341
G1 X128.322 Y154.41 E16.13555
G1 X127.401 Y154.166 E16.23845
G1 X126.528 Y153.895 E16.33717
G1 X125.5 Y153.529 E16.45502
G1 X124.475 Y153.093 E16.57532
G1 X123.934 Y152.84 E16.63982
G1 X107.796 Y144.853 E18.5845
G1 X106.915 Y144.344 E18.69439
G1 X106.173 Y143.847 E18.79084
G1 X105.248 Y143.12 E18.9179
G1 X104.752 Y142.666 E18.99052
G1 X104.118 Y142.024 E19.08797
G1 X103.371 Y141.09 E19.21713
G1 X102.91 Y140.449 E19.30241
G1 X102.628 Y139.976 E19.36188
G1 X102.197 Y139.192 E19.4585
G1 X101.806 Y138.387 E19.55516
G1 X101.474 Y137.473 E19.66018
G1 X101.211 Y136.616 E19.75699
G1 X100.94 Y135.246 E19.90782
G1 X100.826 Y134.464 E19.99317
G1 X100.799 Y133.414 E20.10661
G1 X100.844 Y132.32 E20.22486
G1 X100.353 Y132.453 E20.2798
G1 X99.458 Y132.663 E20.37908
G1 X98.363 Y132.87 E20.49944
G1 X97.279 Y133.009 E20.61747
G1 X96.333 Y133.09 E20.72001
G1 X95.398 Y133.128 E20.82107
G1 X94.475 Y133.126 E20.92076
G1 X93.878 Y133.104 E20.98528
G1 X92.943 Y133.036 E21.08652
G1 X92.011 Y132.927 E21.18787
G1 X91.091 Y132.779 E21.2885
G1 X90.007 Y132.557 E21.40801
G1 X88.948 Y132.273 E21.52642
G1 X88.059 Y131.995 E21.62702
G1 X87.181 Y131.678 E21.72783
G1 X86.436 Y131.379 E21.81453
G1 X85.462 Y130.926 E21.93054
G1 X84.928 Y130.655 E21.99522
G1 X84.108 Y130.201 E22.09644
G1 X83.17 Y129.629 E22.2151
G1 X82.26 Y128.997 E22.33475
G1 X81.782 Y128.639 E22.39925
G1 X81.06 Y128.058 E22.49934
G1 X80.358 Y127.442 E22.60021
G1 X79.565 Y126.682 E22.71883
G1 X78.818 Y125.877 E22.83744
G1 X78.205 Y125.158 E22.93948
G1 X77.628 Y124.418 E23.04082
G1 X77.278 Y123.934 E23.10533
G1 X76.667 Y123.024 E23.22371
G1 X76.111 Y122.079 E23.34212
G1 X75.73 Y121.379 E23.4282
G1 X75.265 Y120.404 E23.54486
G1 X74.951 Y119.684 E23.62969
G1 X74.572 Y118.675 E23.7461
G1 X74.322 Y117.933 E23.83066
G1 X74.029 Y116.888 E23.94787
G1 X73.844 Y116.127 E24.03245
G1 X73.696 Y115.365 E24.11629
G1 X73.552 Y114.458 E24.21547
G1 X73.444 Y113.54 E24.3153
G1 X73.363 Y112.436 E24.43485
G1 X73.348 Y111.329 E24.55442
G1 X73.361 Y110.734 E24.61869
G1 X73.421 Y109.66 E24.73487
G1 X73.51 Y108.857 E24.82212
G1 X73.662 Y107.8 E24.93745
G1 X73.885 Y106.705 E25.05814
G1 X74.022 Y106.137 E25.12124
G1 X74.318 Y105.075 E25.24031
G10
G0 F4320 X74.947 Y111.364
G11
G1 F1800 X74.96 Y110.769 E25.30459
G1 X75.008 Y109.928 E25.39556
G1 X75.1 Y109.033 E25.49273
G1 X75.239 Y108.078 E25.59696
G1 X75.441 Y107.08 E25.70693
G1 X75.645 Y106.257 E25.7985
G1 X75.898 Y105.398 E25.89521
G1 X76.089 Y104.832 E25.95973
G1 X76.435 Y103.911 E26.06598
G1 X76.845 Y102.99 E26.17486
G1 X77.107 Y102.453 E26.23939
G1 X77.574 Y101.577 E26.34661
G1 X78.091 Y100.728 E26.45396
G1 X78.576 Y100.001 E26.54834
G1 X79.091 Y99.299 E26.64237
G1 X79.636 Y98.622 E26.73624
G1 X80.195 Y97.985 E26.82777
G1 X80.605 Y97.549 E26.89241
G1 X81.324 Y96.839 E27.00154
G1 X82.076 Y96.177 E27.10974
G1 X82.538 Y95.8 E27.17414
G1 X83.219 Y95.284 E27.26642
G1 X83.929 Y94.791 E27.35977
G1 X84.789 Y94.25 E27.4695
G1 X85.647 Y93.775 E27.57541
G1 X86.182 Y93.503 E27.64023
G1 X86.976 Y93.137 E27.73466
G1 X87.891 Y92.76 E27.84154
G1 X88.841 Y92.431 E27.95011
G1 X89.414 Y92.256 E28.01482
G1 X90.38 Y92 E28.12275
G1 X91.361 Y91.797 E28.23094
G1 X91.951 Y91.698 E28.29555
G1 X92.946 Y91.568 E28.40393
G1 X93.937 Y91.495 E28.51124
G1 X94.534 Y91.473 E28.57576
G1 X95.39 Y91.472 E28.66821
G1 X96.256 Y91.508 E28.76182
G1 X97.131 Y91.584 E28.85668
G1 X98.113 Y91.711 E28.96362
G1 X99.092 Y91.894 E29.07118
G1 X99.95 Y92.094 E29.16633
G1 X100.772 Y92.325 E29.25854
G1 X101.573 Y92.585 E29.34949
G1 X102.397 Y92.891 E29.44442
G1 X102.96 Y93.126 E29.51031
G1 X103.861 Y93.544 E29.61758
G1 X119.649 Y101.353 E31.51986
G1 X120.124 Y101.614 E31.57839
G1 X120.883 Y102.076 E31.67436
G1 X121.546 Y102.534 E31.76138
G1 X122.424 Y103.306 E31.88765
G1 X122.997 Y103.871 E31.97456
G1 X123.726 Y104.78 E32.1004
G1 X124.259 Y105.56 E32.20243
G1 X124.704 Y106.331 E32.29857
G1 X125.021 Y106.959 E32.37455
G1 X125.246 Y107.563 E32.44416
G1 X125.515 Y108.415 E32.54065
G1 X125.731 Y109.337 E32.64293
G1 X125.867 Y110.219 E32.73931
G1 X125.944 Y111.02 E32.82621
G1 X125.92 Y112.171 E32.95055
G1 X125.827 Y113.119 E33.05342
G1 X125.709 Y113.789 E33.1269
G1 X125.417 Y114.992 E33.26059
G1 X125.939 Y114.773 E33.32173
G1 X126.751 Y114.468 E33.41541
G1 X127.594 Y114.195 E33.51111
G1 X128.548 Y113.93 E33.61804
G1 X129.513 Y113.719 E33.72472
G1 X130.378 Y113.568 E33.81956
G1 X131.229 Y113.458 E33.91223
G1 X131.823 Y113.403 E33.97666
G1 X132.83 Y113.347 E34.08558
G1 X133.818 Y113.348 E34.19228
G1 X134.415 Y113.37 E34.2568
G1 X135.281 Y113.434 E34.35059
G1 X136.144 Y113.536 E34.44444
G1 X136.991 Y113.673 E34.5371
G1 X137.842 Y113.848 E34.63094
G1 X138.694 Y114.064 E34.72586
G1 X139.505 Y114.306 E34.81727
G1 X140.325 Y114.589 E34.91095
G1 X141.259 Y114.957 E35.01937
G1 X142.157 Y115.373 E35.12626
G1 X142.937 Y115.774 E35.22098
G1 X143.457 Y116.067 E35.28544
G1 X144.188 Y116.515 E35.37803
G1 X145.013 Y117.069 E35.48536
G1 X145.814 Y117.676 E35.5939
G1 X146.277 Y118.054 E35.65845
G1 X147.026 Y118.714 E35.76627
G1 X147.736 Y119.413 E35.87387
G1 X148.338 Y120.06 E35.96932
G1 X148.887 Y120.705 E36.0608
G1 X149.43 Y121.4 E36.15605
G1 X149.925 Y122.095 E36.2482
G1 X150.402 Y122.829 E36.34274
G1 X150.831 Y123.556 E36.43391
G1 X151.117 Y124.081 E36.49848
G1 X151.566 Y124.986 E36.60758
G1 X151.956 Y125.899 E36.71481
G1 X152.267 Y126.722 E36.80983
G1 X152.457 Y127.29 E36.87451
G1 X152.737 Y128.238 E36.98127
G1 X152.967 Y129.215 E37.08967
G1 X153.082 Y129.8 E37.15406
G1 X153.217 Y130.654 E37.24743
G1 X153.331 Y131.64 E37.35463
G1 X153.39 Y132.643 E37.46314
G1 X153.403 Y133.51 E37.55679
G1 X153.39 Y134.108 E37.62139
G1 X153.335 Y135.085 E37.72707
G1 X153.251 Y135.843 E37.80944
G1 X153.114 Y136.791 E37.91288
G1 X152.908 Y137.805 E38.02463
G1 X152.77 Y138.373 E38.08776
G1 X152.502 Y139.328 E38.19489
G1 X152.18 Y140.268 E38.3022
G1 X151.915 Y140.964 E38.38263
G1 X151.506 Y141.885 E38.49146
G1 X151.121 Y142.661 E38.58502
G1 X150.7 Y143.424 E38.67914
G1 X150.392 Y143.936 E38.74367
G1 X149.929 Y144.648 E38.83539
G1 X149.348 Y145.465 E38.94366
G1 X148.715 Y146.254 E39.05291
G1 X148.156 Y146.891 E39.14444
G1 X147.747 Y147.326 E39.20892
G1 X147.116 Y147.947 E39.30454
G1 X146.488 Y148.515 E39.39599
G1 X145.813 Y149.075 E39.49071
G1 X145.134 Y149.59 E39.58275
G1 X144.311 Y150.161 E39.69093
G1 X143.449 Y150.687 E39.79999
G1 X142.707 Y151.098 E39.8916
G1 X142.173 Y151.37 E39.95632
G1 X141.375 Y151.738 E40.05123
G1 X140.439 Y152.122 E40.16049
G1 X139.495 Y152.448 E40.26835
G1 X138.924 Y152.621 E40.33279
G1 X138.115 Y152.837 E40.42322
G1 X137.262 Y153.026 E40.51758
G1 X136.397 Y153.177 E40.61241
G1 X135.409 Y153.306 E40.72002
G1 X134.414 Y153.38 E40.82778
G1 X133.816 Y153.402 E40.89241
G1 X132.82 Y153.403 E40.99998
G1 X131.824 Y153.348 E41.10771
G1 X130.958 Y153.262 E41.2017
G1 X130.367 Y153.181 E41.26612
G1 X129.523 Y153.034 E41.35864
G1 X128.536 Y152.819 E41.46774
G1 X127.582 Y152.551 E41.57476
G1 X126.773 Y152.289 E41.6666
G1 X125.954 Y151.984 E41.76099
G1 X125.391 Y151.749 E41.82688
G1 X124.488 Y151.331 E41.93434
G1 X108.506 Y143.42 E43.86028
G1 X107.806 Y143.014 E43.94768
G1 X107.064 Y142.517 E44.04413
G1 X106.328 Y141.939 E44.1452
G1 X105.832 Y141.485 E44.21782
G1 X105.176 Y140.784 E44.32151
G1 X104.621 Y140.09 E44.41748
G1 X104.16 Y139.441 E44.50345
G1 X103.599 Y138.421 E44.62918
G1 X103.205 Y137.553 E44.73213
G1 X102.977 Y136.926 E44.80418
G1 X102.722 Y136.009 E44.90697
G1 X102.51 Y134.936 E45.0251
G1 X102.413 Y134.238 E45.10121
G1 X102.397 Y133.48 E45.18309
G1 X102.434 Y132.578 E45.28059
G1 X102.546 Y131.635 E45.38315
G1 X102.721 Y130.746 E45.481
G1 X102.964 Y129.872 E45.57897
G1 X102.408 Y130.104 E45.64404
G1 X101.587 Y130.41 E45.73867
G1 X100.642 Y130.717 E45.84598
G1 X99.688 Y130.97 E45.95257
G1 X99.103 Y131.103 E46.01736
G1 X98.112 Y131.289 E46.12626
G1 X97.129 Y131.416 E46.23331
G1 X96.255 Y131.492 E46.32805
G1 X95.39 Y131.528 E46.42155
G1 X94.534 Y131.527 E46.514
G1 X93.937 Y131.505 E46.57852
G1 X92.948 Y131.432 E46.68562
G1 X91.944 Y131.301 E46.79498
G1 X91.095 Y131.152 E46.88807
G1 X90.24 Y130.963 E46.98264
G1 X89.415 Y130.743 E47.07485
G1 X88.591 Y130.486 E47.16807
G1 X87.777 Y130.193 E47.26151
G1 X86.963 Y129.859 E47.35653
G1 X86.186 Y129.499 E47.44902
G1 X85.652 Y129.228 E47.51369
G1 X84.893 Y128.807 E47.60743
G1 X84.044 Y128.288 E47.71489
G1 X83.219 Y127.716 E47.82332
G1 X82.536 Y127.198 E47.91589
G1 X81.867 Y126.644 E48.0097
G1 X81.223 Y126.062 E48.10345
G1 X80.605 Y125.451 E48.19731
G1 X80.027 Y124.829 E48.28901
G1 X79.459 Y124.165 E48.38338
G1 X79.087 Y123.695 E48.44812
G1 X78.575 Y122.996 E48.54169
G1 X78.014 Y122.158 E48.6506
G1 X77.516 Y121.314 E48.75644
G1 X77.102 Y120.538 E48.85143
G1 X76.732 Y119.766 E48.94389
G1 X76.39 Y118.966 E49.03785
G1 X76.176 Y118.409 E49.1023
G1 X75.853 Y117.469 E49.20964
G1 X75.583 Y116.51 E49.31724
G1 X75.408 Y115.791 E49.39716
G1 X75.223 Y114.81 E49.50497
G1 X75.133 Y114.218 E49.56965
G1 X75.018 Y113.22 E49.67814
G1 X74.96 Y112.233 E49.78492
G1 X74.947 Y111.364 E49.87878
G0 F4320 X74.544 Y111.5
G1 F1800 X74.572 Y110.487 E49.98823
G1 X74.636 Y109.596 E50.08471
G1 X74.736 Y108.732 E50.17864
G1 X74.823 Y108.153 E50.24188
G1 X74.992 Y107.26 E50.34003
G1 X75.189 Y106.418 E50.43342
G1 X75.469 Y105.418 E50.54558
G1 X75.71 Y104.704 E50.62696
G1 X76.063 Y103.765 E50.7353
G1 X76.371 Y103.061 E50.81829
G1 X76.747 Y102.278 E50.9121
G1 X77.161 Y101.502 E51.00709
G1 X77.611 Y100.74 E51.10267
G1 X78.17 Y99.879 E51.21353
G1 X78.778 Y99.051 E51.32448
G1 X79.149 Y98.583 E51.38898
G1 X79.725 Y97.909 E51.48473
G1 X80.314 Y97.275 E51.57819
G1 X81.038 Y96.558 E51.68824
G1 X81.823 Y95.867 E51.80118
G1 X82.285 Y95.49 E51.86558
G1 X82.98 Y94.963 E51.95978
G1 X83.822 Y94.379 E52.07045
G1 X84.71 Y93.836 E52.18286
G1 X85.229 Y93.545 E52.24713
G1 X86.001 Y93.147 E52.34093
G1 X86.811 Y92.772 E52.43733
G1 X87.744 Y92.388 E52.54629
G1 X88.724 Y92.049 E52.65829
G1 X89.575 Y91.796 E52.75417
G1 X90.423 Y91.583 E52.8486
G1 X91.295 Y91.403 E52.94476
G1 X91.885 Y91.304 E53.00937
G1 X92.908 Y91.17 E53.1208
G1 X93.922 Y91.095 E53.23061
G1 X94.519 Y91.073 E53.29513
G1 X95.392 Y91.072 E53.38942
G1 X96.425 Y91.115 E53.50108
G1 X97.434 Y91.216 E53.61059
G1 X98.026 Y91.296 E53.67511
G1 X98.9 Y91.447 E53.7709
G1 X99.916 Y91.669 E53.88322
G1 X100.894 Y91.944 E53.99294
G1 X101.71 Y92.209 E54.0856
G1 X102.551 Y92.522 E54.18251
G1 X103.372 Y92.871 E54.27886
G1 X103.912 Y93.124 E54.34326
G1 X119.826 Y100.994 E56.26066
G1 X120.332 Y101.272 E56.32301
G1 X121.091 Y101.734 E56.41897
G1 X121.786 Y102.213 E56.51013
G1 X122.688 Y103.006 E56.63984
G1 X123.286 Y103.593 E56.73034
G1 X124.038 Y104.53 E56.8601
G1 X124.605 Y105.36 E56.96866
G1 X125.05 Y106.131 E57.0648
G1 X125.378 Y106.779 E57.14324
G1 X125.628 Y107.443 E57.21987
G1 X125.897 Y108.295 E57.31636
G1 X126.126 Y109.276 E57.42516
G1 X126.262 Y110.158 E57.52154
G1 X126.344 Y110.995 E57.61237
G1 X126.32 Y112.179 E57.74026
G1 X126.221 Y113.189 E57.84987
G1 X126.023 Y114.311 E57.97291
G1 X126.612 Y114.093 E58.04074
G1 X127.474 Y113.813 E58.13863
G1 X128.447 Y113.542 E58.24771
G1 X129.441 Y113.325 E58.35759
G1 X130.325 Y113.172 E58.45448
G1 X131.192 Y113.06 E58.5489
G1 X132.065 Y112.985 E58.64353
G1 X132.961 Y112.947 E58.74038
G1 X133.833 Y112.948 E58.83456
G1 X134.43 Y112.97 E58.89908
G1 X135.454 Y113.045 E59.00997
G1 X136.468 Y113.179 E59.12043
G1 X137.057 Y113.278 E59.18494
G1 X137.926 Y113.457 E59.28076
G1 X138.795 Y113.677 E59.37757
