( G-Code File Generated with Bantam Tools Studio on: Thu Aug 21 00:55:30 2025 )
( Target Machine: Bantam Tools ArtFrame 1824 )
( Margins[LRTB]: 0, 0, 0, 0 )
( Paper Dimensions[WxH mm]: 431.8, 279.4 )
( Install Height: 5.5)
( Scaling 1 )
( XY Offsets: 0, 0 )
( Rotation: 180)
( AccelX: 500 )
( AccelY: 500 )
G90
G0 Z5.5
( Install Tool: 1. Color: Black2 )
G0 X0 Y0
G0 Z5.5
M0
( CLEAR )
G0 Z5.5
G0 X215.89999 Y31.75
G1 Z0 F4000
G1 X229.42972 Y33.66209 F2000
G1 X242.74608 Y39.33063
G1 X255.63904 Y48.55481
G1 X267.9053 Y61.00784
G1 X279.35141 Y76.24858
G1 X289.79684 Y93.73711
G1 X299.07687 Y112.85391
G1 X307.0452 Y132.92177
G1 X313.57605 Y153.22974
G1 X318.56656 Y173.05838
G1 X321.9379 Y191.70532
G1 X323.63699 Y208.50992
G1 X323.63699 Y222.87689
G1 X321.9379 Y234.2973
G1 X318.56656 Y242.36656
G1 X313.57605 Y246.79878
G1 X307.0452 Y247.43698
G1 X299.07687 Y244.25854
G1 X289.79684 Y237.37607
G1 X279.35141 Y227.03337
G1 X267.9053 Y213.59686
G1 X255.63904 Y197.5425
G1 X242.74608 Y179.43904
G1 X229.42972 Y159.92783
G1 X202.37025 Y119.47218
G1 X189.05391 Y99.96095
G1 X176.16095 Y81.85751
G1 X163.89468 Y65.80315
G1 X152.44856 Y52.36662
G1 X142.00313 Y42.02394
G1 X132.7231 Y35.14146
G1 X124.75479 Y31.96303
G1 X118.22392 Y32.60123
G1 X113.23344 Y37.03343
G1 X109.86208 Y45.10271
G1 X108.16302 Y56.5231
G1 X108.16302 Y70.89009
G1 X109.86208 Y87.6947
G1 X113.23344 Y106.34163
G1 X118.22392 Y126.17027
G1 X124.75479 Y146.47823
G1 X132.7231 Y166.54608
G1 X142.00313 Y185.66287
G1 X152.44856 Y203.15143
G1 X163.89468 Y218.39217
G1 X176.16095 Y230.8452
G1 X189.05391 Y240.06937
G1 X202.37025 Y245.7379
G1 X215.89999 Y247.64999
G1 X229.42972 Y245.7379
G1 X242.74608 Y240.06937
G1 X255.63904 Y230.8452
G1 X267.9053 Y218.39217
G1 X279.35141 Y203.15143
G1 X289.79684 Y185.66287
G1 X299.07687 Y166.54608
G1 X307.0452 Y146.47823
G1 X313.57605 Y126.17027
G1 X318.56656 Y106.34163
G1 X321.9379 Y87.6947
G1 X323.63699 Y70.89009
G1 X323.63699 Y56.5231
G1 X321.9379 Y45.10271
G1 X318.56656 Y37.03343
G1 X313.57605 Y32.60123
G1 X307.0452 Y31.96303
G1 X299.07687 Y35.14146
G1 X289.79684 Y42.02394
G1 X279.35141 Y52.36662
G1 X267.9053 Y65.80315
G1 X255.63904 Y81.85751
G1 X242.74608 Y99.96095
G1 X229.42972 Y119.47218
G1 X202.37025 Y159.92783
G1 X189.05391 Y179.43904
G1 X176.16095 Y197.5425
G1 X163.89468 Y213.59686
G1 X152.44856 Y227.03337
G1 X142.00313 Y237.37607
G1 X132.7231 Y244.25854
G1 X124.75479 Y247.43698
G1 X118.22392 Y246.79878
G1 X113.23344 Y242.36656
G1 X109.86208 Y234.2973
G1 X108.16302 Y222.87689
G1 X108.16302 Y208.50992
G1 X109.86208 Y191.70532
G1 X113.23344 Y173.05838
G1 X118.22392 Y153.22974
G1 X124.75479 Y132.92177
G1 X132.7231 Y112.85391
G1 X142.00313 Y93.73711
G1 X152.44856 Y76.24858
G1 X163.89468 Y61.00784
G1 X176.16095 Y48.55481
G1 X189.05391 Y39.33063
G1 X202.37025 Y33.66209
G1 X215.89999 Y31.75
G0 Z5.5
G0 X0 Y0
M5
M2
( Total Written Distance: 1.6485m )
( Non-Write Travel Distance: 0m )
