( G-Code File Generated with Bantam Tools Studio on: Thu Aug 21 00:45:32 2025 )
( Target Machine: Bantam Tools ArtFrame 1824 )
( Margins[LRTB]: 0, 0, 0, 0 )
( Paper Dimensions[WxH mm]: 279.4, 215.9 )
( Install Height: 5.5)
( Scaling 1 )
( XY Offsets: 0, 0 )
( Rotation: 180)
( AccelX: 500 )
( AccelY: 500 )
G90
G0 Z5.5
( Install Tool: 1. Color: Black2 )
G0 X0 Y0
G0 Z5.5
M0
( CLEAR )
G0 Z5.5
G0 X139.7 Y38.10001
G1 Z0 F4000
G1 X148.45453 Y39.33725 F2000
G1 X157.07097 Y43.00511
G1 X165.41348 Y48.97369
G1 X173.35049 Y57.03156
G1 X180.75679 Y66.8932
G1 X187.51559 Y78.20932
G1 X193.52036 Y90.57902
G1 X198.6763 Y103.56409
G1 X202.90216 Y116.70454
G1 X206.13129 Y129.53485
G1 X208.31274 Y141.60049
G1 X209.41217 Y152.47406
G1 X209.41217 Y161.77036
G1 X208.31274 Y169.16003
G1 X206.13129 Y174.38129
G1 X202.90216 Y177.24921
G1 X198.6763 Y177.66217
G1 X193.52036 Y175.60555
G1 X187.51559 Y171.15216
G1 X180.75679 Y164.45984
G1 X173.35049 Y155.76559
G1 X165.41348 Y145.3775
G1 X157.07097 Y133.66351
G1 X148.45453 Y121.03859
G1 X130.94545 Y94.86141
G1 X122.32901 Y82.2365
G1 X113.98649 Y70.52249
G1 X106.04949 Y60.1344
G1 X98.6432 Y51.44016
G1 X91.88439 Y44.74783
G1 X85.87965 Y40.29446
G1 X80.72369 Y38.23782
G1 X76.49784 Y38.65079
G1 X73.26871 Y41.51871
G1 X71.08724 Y46.73997
G1 X69.98782 Y54.12964
G1 X69.98782 Y63.42595
G1 X71.08724 Y74.2995
G1 X73.26871 Y86.36516
G1 X76.49784 Y99.19547
G1 X80.72369 Y112.33591
G1 X85.87965 Y125.32098
G1 X91.88439 Y137.69067
G1 X98.6432 Y149.00679
G1 X106.04949 Y158.86845
G1 X113.98649 Y166.92632
G1 X122.32901 Y172.89488
G1 X130.94545 Y176.56274
G1 X139.7 Y177.79999
G1 X148.45453 Y176.56274
G1 X157.07097 Y172.89488
G1 X165.41348 Y166.92632
G1 X173.35049 Y158.86845
G1 X180.75679 Y149.00679
G1 X187.51559 Y137.69067
G1 X193.52036 Y125.32098
G1 X198.6763 Y112.33591
G1 X202.90216 Y99.19547
G1 X206.13129 Y86.36516
G1 X208.31274 Y74.2995
G1 X209.41217 Y63.42595
G1 X209.41217 Y54.12964
G1 X208.31274 Y46.73997
G1 X206.13129 Y41.51871
G1 X202.90216 Y38.65079
G1 X198.6763 Y38.23782
G1 X193.52036 Y40.29446
G1 X187.51559 Y44.74783
G1 X180.75679 Y51.44016
G1 X173.35049 Y60.1344
G1 X165.41348 Y70.52249
G1 X157.07097 Y82.2365
G1 X148.45453 Y94.86141
G1 X130.94545 Y121.03859
G1 X122.32901 Y133.66351
G1 X113.98649 Y145.3775
G1 X106.04949 Y155.76559
G1 X98.6432 Y164.45984
G1 X91.88439 Y171.15216
G1 X85.87965 Y175.60555
G1 X80.72369 Y177.66217
G1 X76.49784 Y177.24921
G1 X73.26871 Y174.38129
G1 X71.08724 Y169.16003
G1 X69.98782 Y161.77036
G1 X69.98782 Y152.47406
G1 X71.08724 Y141.60049
G1 X73.26871 Y129.53485
G1 X76.49784 Y116.70454
G1 X80.72369 Y103.56409
G1 X85.87965 Y90.57902
G1 X91.88439 Y78.20932
G1 X98.6432 Y66.8932
G1 X106.04949 Y57.03156
G1 X113.98649 Y48.97369
G1 X122.32901 Y43.00511
G1 X130.94545 Y39.33725
G1 X139.7 Y38.10001
G0 Z5.5
G0 X0 Y0
M5
M2
( Total Written Distance: 1.06668m )
( Non-Write Travel Distance: 0m )
