( G-Code File Generated with Bantam Tools Studio on: Thu Aug 21 00:48:15 2025 )
( Target Machine: Bantam Tools ArtFrame 1824 )
( Margins[LRTB]: 0, 0, 0, 0 )
( Paper Dimensions[WxH mm]: 457.2, 609.6 )
( Install Height: 5.5)
( Scaling 1 )
( XY Offsets: 0, 0 )
( Rotation: 90)
( AccelX: 500 )
( AccelY: 500 )
G90
G0 Z5.5
( Install Tool: 1. Color: Black )
G0 X0 Y0
G0 Z5.5
M0
( CLEAR )
G0 Z5.5
G0 X380.99997 Y304.79999
G1 Z0 F4000
G1 X378.30054 Y323.90076 F2000
G1 X370.29791 Y342.70032
G1 X357.27554 Y360.90219
G1 X339.69479 Y378.21924
G1 X318.17847 Y394.37845
G1 X293.48877 Y409.12494
G1 X266.50034 Y422.2262
G1 X238.16922 Y433.47556
G1 X209.49918 Y442.69562
G1 X181.5058 Y449.741
G1 X155.18071 Y454.50055
G1 X131.45659 Y456.89926
G1 X111.17376 Y456.89926
G1 X95.05086 Y454.50052
G1 X83.65898 Y449.741
G1 X77.40172 Y442.69562
G1 X76.50072 Y433.47556
G1 X80.98795 Y422.22617
G1 X90.70436 Y409.12494
G1 X105.3058 Y394.37842
G1 X124.27497 Y378.21927
G1 X146.94002 Y360.90213
G1 X172.49785 Y342.70029
G1 X200.04309 Y323.90076
G1 X257.15692 Y285.69922
G1 X284.70218 Y266.89963
G1 X310.26001 Y248.69783
G1 X332.92502 Y231.38072
G1 X351.8942 Y215.22147
G1 X366.49564 Y200.47499
G1 X376.2121 Y187.37376
G1 X380.69925 Y176.12442
G1 X379.79825 Y166.90433
G1 X373.54102 Y159.85899
G1 X362.14908 Y155.09941
G1 X346.02621 Y152.70071
G1 X325.74341 Y152.70071
G1 X302.0192 Y155.09943
G1 X275.69415 Y159.85899
G1 X247.70073 Y166.90434
G1 X219.03081 Y176.12442
G1 X190.69958 Y187.37378
G1 X163.71117 Y200.47504
G1 X139.02158 Y215.22153
G1 X117.5051 Y231.38078
G1 X99.92445 Y248.69783
G1 X86.90207 Y266.89963
G1 X78.89943 Y285.69922
G1 X76.2 Y304.80002
G1 X78.89943 Y323.90079
G1 X86.90207 Y342.70029
G1 X99.92445 Y360.90213
G1 X117.50521 Y378.21927
G1 X139.02158 Y394.37848
G1 X163.71127 Y409.12494
G1 X190.69972 Y422.2262
G1 X219.03081 Y433.47556
G1 X247.70073 Y442.69559
G1 X275.69431 Y449.741
G1 X302.01935 Y454.50055
G1 X325.7435 Y456.89926
G1 X346.02631 Y456.89926
G1 X362.1492 Y454.50052
G1 X373.54095 Y449.741
G1 X379.79828 Y442.69556
G1 X380.69922 Y433.47552
G1 X376.21201 Y422.22614
G1 X366.49551 Y409.12488
G1 X351.8942 Y394.37848
G1 X332.92502 Y378.21927
G1 X310.25977 Y360.90204
G1 X284.70193 Y342.7002
G1 X257.15689 Y323.90079
G1 X200.04306 Y285.69919
G1 X172.49776 Y266.89963
G1 X146.93994 Y248.69775
G1 X124.27497 Y231.38071
G1 X105.30578 Y215.22147
G1 X90.70432 Y200.47496
G1 X80.9879 Y187.37373
G1 X76.50072 Y176.12439
G1 X77.40172 Y166.90437
G1 X83.65901 Y159.85893
G1 X95.05092 Y155.09941
G1 X111.17386 Y152.70071
G1 X131.4567 Y152.70074
G1 X155.18063 Y155.09941
G1 X181.50569 Y159.85896
G1 X209.49939 Y166.9044
G1 X238.16946 Y176.1245
G1 X266.50024 Y187.37378
G1 X293.48868 Y200.47502
G1 X318.17844 Y215.22153
G1 X339.69479 Y231.38072
G1 X357.2757 Y248.69797
G1 X370.29791 Y266.89969
G1 X378.30054 Y285.69925
G1 X380.99997 Y304.79999
G0 Z5.5
G0 X0 Y0
M5
M2
( Total Written Distance: 2.3273m )
( Non-Write Travel Distance: 0m )
